sveltekit-test/static/meta/favicon-32x32.svg

<svg fill="none" height="32" viewBox="0 0 32 32" width="32" xmlns="http://www.w3.org/2000/svg"><path d="m28 16c0 6.6274-5.3726 12-12 12-6.62742 0-12-5.3726-12-12 0-6.62742 5.37258-12 12-12 6.6274 0 12 5.37258 12 12z" fill="#fff"/><g fill="#000"><path d="m11.2 13.6c.6627 0 1.2-.5373 1.2-1.2 0-.6628-.5373-1.2-1.2-1.2s-1.2.5372-1.2 1.2c0 .6627.5373 1.2 1.2 1.2z"/><path d="m20.7996 13.6c.6628 0 1.2-.5373 1.2-1.2 0-.6628-.5372-1.2-1.2-1.2-.6627 0-1.2.5372-1.2 1.2 0 .6627.5373 1.2 1.2 1.2z"/><path d="m11.2 17.2c.6627 0 1.2-.5372 1.2-1.2 0-.6627-.5373-1.2-1.2-1.2s-1.2.5373-1.2 1.2c0 .6628.5373 1.2 1.2 1.2z"/><path d="m20.7996 17.2c.6628 0 1.2-.5372 1.2-1.2 0-.6627-.5372-1.2-1.2-1.2-.6627 0-1.2.5373-1.2 1.2 0 .6628.5373 1.2 1.2 1.2z"/><path d="m16.0004 23.2001c-3.78 0-6.30001-2.46-6.42001-2.58-.24-.24-.24-.6 0-.84s.60001-.24.84001 0c0 0 2.28 2.22 5.58 2.22s5.58-2.22 5.58-2.22c.24-.24.6-.24.84 0s.24.6 0 .84c-.12.12-2.64 2.58-6.42 2.58z"/><path d="m16 4c-6.6 0-12 5.4-12 12s5.4 12 12 12 12-5.4 12-12-5.4-12-12-12zm0 22.8c-5.94 0-10.8-4.86-10.8-10.8s4.86-10.8 10.8-10.8 10.8 4.86 10.8 10.8-4.86 10.8-10.8 10.8z"/></g></svg>

<svg width="32" height="32" viewBox="0 0 32 32" fill="none" xmlns="http://www.w3.org/2000/svg">
<path d="M28 16C28 22.6274 22.6274 28 16 28C9.37258 28 4 22.6274 4 16C4 9.37258 9.37258 4 16 4C22.6274 4 28 9.37258 28 16Z" fill="white"/>
<path d="M11.2 13.6C11.8627 13.6 12.4 13.0627 12.4 12.4C12.4 11.7372 11.8627 11.2 11.2 11.2C10.5373 11.2 10 11.7372 10 12.4C10 13.0627 10.5373 13.6 11.2 13.6Z" fill="black"/>
<path d="M20.7996 13.6C21.4624 13.6 21.9996 13.0627 21.9996 12.4C21.9996 11.7372 21.4624 11.2 20.7996 11.2C20.1369 11.2 19.5996 11.7372 19.5996 12.4C19.5996 13.0627 20.1369 13.6 20.7996 13.6Z" fill="black"/>
<path d="M11.2 17.2C11.8627 17.2 12.4 16.6628 12.4 16C12.4 15.3373 11.8627 14.8 11.2 14.8C10.5373 14.8 10 15.3373 10 16C10 16.6628 10.5373 17.2 11.2 17.2Z" fill="black"/>
<path d="M20.7996 17.2C21.4624 17.2 21.9996 16.6628 21.9996 16C21.9996 15.3373 21.4624 14.8 20.7996 14.8C20.1369 14.8 19.5996 15.3373 19.5996 16C19.5996 16.6628 20.1369 17.2 20.7996 17.2Z" fill="black"/>
<path d="M16.0004 23.2001C12.2204 23.2001 9.70039 20.7401 9.58039 20.6201C9.34039 20.3801 9.34039 20.0201 9.58039 19.7801C9.82039 19.5401 10.1804 19.5401 10.4204 19.7801C10.4204 19.7801 12.7004 22.0001 16.0004 22.0001C19.3004 22.0001 21.5804 19.7801 21.5804 19.7801C21.8204 19.5401 22.1804 19.5401 22.4204 19.7801C22.6604 20.0201 22.6604 20.3801 22.4204 20.6201C22.3004 20.7401 19.7804 23.2001 16.0004 23.2001Z" fill="black"/>
<path d="M16 4C9.4 4 4 9.4 4 16C4 22.6 9.4 28 16 28C22.6 28 28 22.6 28 16C28 9.4 22.6 4 16 4ZM16 26.8C10.06 26.8 5.2 21.94 5.2 16C5.2 10.06 10.06 5.2 16 5.2C21.94 5.2 26.8 10.06 26.8 16C26.8 21.94 21.94 26.8 16 26.8Z" fill="black"/>
</svg>
